X: 256
T: Duck River
B: canberra pickers and fiddlers
B: tunes
M:4/4
L:1/8
R: reel
Q: 1/4=145
K:D
V:1 
A,B,|:D2D2 FEDD|FA2 F A2 Ac|B2 Ac B2 AG|F2E2 DB,A,B,|
D3D FEDD|F A2B A2 AB|d2 AB dBAG|1 FDEF D2 A,B,:|2FDEF D4||
|:fa2  a3ag|fd- d2 d4|b4 b2 ba|ge- e2 e4|
f a2 a- abag|fd2 d- d2 AB|d2 AB dBAG|FDEF D4:|]
% abcbook-tune_id 63ae8f1c7b6dd2ba21fd38e7
% abcbook-tune_composer_id 
% abcbook-link-0 https://www.youtube.com/watch?v=bDAqHcvzi0s
% abcbook-boost 0
% abcbook-difficulty 0
% abcbook-tags canberra pickers and fiddlers,old time tunes,steve ryan,© free
% abcbook-tablature 
% abcbook-transpose 
% abcbook-tuning ADAE
% abcbook-lastupdated 1675313208036
% abcbook-src-url https://tunebook.net/scrape/tunes.abc
% abcbook-soundfonts 
% abcbook-repeats 1


